Yaru++/actions/16/align-horizontal-baseline.svg

<svg viewBox="0 0 24 24" xmlns="http://www.w3.org/2000/svg">
  <path d="m8 4v14.460938c-.3287585.068788-.6271097.141073-1 .205078l.2773438 1.333984c.2493275-.042789.4846855-.096456.7226562-.148438v.148438h1v-.402344c4.814903-1.400563 7-4.744156 7-7.597656h-1.476562c0 .9235-.466473 2.705978-1.265626 3.392578-.815787-.7731-1.799919-1.968194-2.037109-3.371094l-1.189453-.021484c0 1.8985 1.341099 3.470647 2.349609 4.435547-.862214.875815-1.877429 1.403298-3.380859 1.804687v-14.240234zm5.136719 0c-1.172738.0254798-2.073961.2175457-2.728516.4980469l.369141 1.2617187c.313637-.1020589 1.499851-.4589844 2.195312-.4589844h.095703c.968193.03822 1.03711.3687222 1.03711 1.1464844v.3066406l-.50586.0761719c-2.345489.3187628-3.599609.5864822-3.599609 2.2695313 0 1.1730346.913577 1.9003906 2.236328 1.9003906.913646 0 1.513319-.35729 2.126953-.841797l.191407.714844h1.445312v-4.7187501c0-1.4407816-1.06283-2.1542969-2.699219-2.1542969zm.96875 3.7480469v1.5683593c-.504542.3187631-.88646.5488282-1.541016.5488282-.586368 0-.873047-.3436179-.873047-.828125 0-.9180269.858184-1.07264 1.908203-1.2128906z" fill="#808080"/>
</svg>

<svg xmlns="http://www.w3.org/2000/svg" viewBox="0 0 24 24">
 <defs>
  <style id="current-color-scheme" type="text/css">
   .ColorScheme-Text { color:#808080; }
  </style>
 </defs>
 <path fill="#808080" class="ColorScheme-Text" d="M 8 4 L 8 18.460938 C 7.6712415 18.529726 7.3728903 18.602011 7 18.666016 L 7.2773438 20 C 7.5266713 19.957211 7.7620293 19.903544 8 19.851562 L 8 20 L 9 20 L 9 19.597656 C 13.814903 18.197093 16 14.8535 16 12 L 14.523438 12 C 14.523438 12.9235 14.056965 14.705978 13.257812 15.392578 C 12.442025 14.619478 11.457893 13.424384 11.220703 12.021484 L 10.03125 12 C 10.03125 13.8985 11.372349 15.470647 12.380859 16.435547 C 11.518645 17.311362 10.50343 17.838845 9 18.240234 L 9 4 L 8 4 z M 13.136719 4 C 11.963981 4.0254798 11.062758 4.2175457 10.408203 4.4980469 L 10.777344 5.7597656 C 11.090981 5.6577067 12.277195 5.3007812 12.972656 5.3007812 L 13.068359 5.3007812 C 14.036552 5.3390012 14.105469 5.6695034 14.105469 6.4472656 L 14.105469 6.7539062 L 13.599609 6.8300781 C 11.25412 7.1488409 10 7.4165603 10 9.0996094 C 10 10.272644 10.913577 11 12.236328 11 C 13.149974 11 13.749647 10.64271 14.363281 10.158203 L 14.554688 10.873047 L 16 10.873047 L 16 6.1542969 C 16 4.7135153 14.93717 4 13.300781 4 L 13.136719 4 z M 14.105469 7.7480469 L 14.105469 9.3164062 C 13.600927 9.6351693 13.219009 9.8652344 12.564453 9.8652344 C 11.978085 9.8652344 11.691406 9.5216165 11.691406 9.0371094 C 11.691406 8.1190825 12.54959 7.9644694 13.599609 7.8242188 L 14.105469 7.7480469 z"/>
</svg>
